Papirus/48x48/apps/citra.svg

<?xml version="1.0" encoding="UTF-8" standalone="no"?>
<svg xmlns="http://www.w3.org/2000/svg" height="48" viewBox="0 0 48 48" width="48" version="1.1">
 <path style="opacity:0.2;fill:#000000;fill-opacity:1" d="M 24,5 A 20,20 0 0 0 4,25 20,20 0 0 0 24,45 20,20 0 0 0 44,25 20,20 0 0 0 24,5 Z"/>
 <path fill="#c88937" d="m24 4a20 20 0 0 0 -20 20 20 20 0 0 0 20 20 20 20 0 0 0 20 -20 20 20 0 0 0 -20 -20z" style="fill:#ff9426;fill-opacity:1"/>
 <circle r="17" cy="25" cx="24" style="opacity:0.2;fill:#000000;fill-opacity:1;"/>
 <circle style="opacity:1;fill:#ffffff;fill-opacity:1;" cx="24" cy="24" r="17"/>
 <path opacity=".2" fill="#ffffff" d="m24 4a20 20 0 0 0 -19.859 17.852 20 19 0 0 1 19.859 -16.852 20 19 0 0 1 19.922 17.447 20 20 0 0 0 -19.922 -18.447zm19.922 18.447a20 20 0 0 1 0.078 1.553 20 19 0 0 0 -0.078 -1.553zm-39.781-0.595a20 19 0 0 0 -0.0488 0.392 20 20 0 0 1 0.0488 -0.392zm-0.0488 0.392a20 20 0 0 0 -0.0918 1.756 20 19 0 0 1 0.0918 -1.756z"/>
 <path style="fill:#d2e015;fill-opacity:1;" d="m 23.964844,9 c -1.649319,-0.00911 -3.187314,0.3756455 -3.929688,0.7949219 10e-4,0.00617 9.53e-4,0.00545 0.002,0.011719 0.06309,0.3781121 0.210194,0.9659701 0.414063,1.6582031 0.407737,1.384465 1.044102,3.210891 1.707031,5.015625 0.883509,2.405232 1.315982,3.444762 1.839844,4.759765 0.529941,-1.31401 0.970992,-2.357357 1.861328,-4.763672 0.667483,-1.80401 1.303757,-3.628333 1.707031,-5.009765 0.201637,-0.690716 0.344614,-1.27617 0.402344,-1.6484373 C 27.181475,9.399346 25.612602,9.0091 23.964844,9 Z"/>
 <path style="fill:#c74a30;fill-opacity:1;" d="m 23.998047,26.759766 c -0.523862,1.315003 -0.956335,2.354533 -1.839844,4.759765 -0.662929,1.804734 -1.299294,3.63116 -1.707031,5.015625 -0.203869,0.692233 -0.350973,1.280091 -0.414063,1.658203 -0.0011,0.0063 -9.59e-4,0.0055 -0.002,0.01172 0.742325,0.419277 2.280369,0.804022 3.929688,0.794922 1.647758,-0.0091 3.216631,-0.399346 4.003906,-0.818359 C 27.910973,37.809374 27.767996,37.22392 27.566359,36.533204 27.163085,35.151772 26.526811,33.327448 25.859328,31.523439 24.968992,29.117124 24.527941,28.073777 23.998,26.759767 Z"/>
 <path style="fill:#ff769d;fill-opacity:1;" d="m 38.205078,20.035156 c -0.0061,10e-4 -0.0054,9.53e-4 -0.01172,0.002 -0.378112,0.06309 -0.96597,0.210194 -1.658203,0.414063 -1.384465,0.407737 -3.210891,1.044102 -5.015625,1.707031 -2.405232,0.883509 -3.444762,1.315982 -4.759765,1.839844 1.31401,0.529941 2.357357,0.970992 4.763672,1.861328 1.80401,0.667483 3.628333,1.303757 5.009765,1.707031 0.690716,0.201637 1.27617,0.344614 1.648438,0.402344 C 38.600654,27.181475 38.9909,25.612602 39,23.964844 39.0091,22.315525 38.624355,20.777481 38.205078,20.035156 Z"/>
 <path style="fill:#f9a726;fill-opacity:1;" d="M 9.7949219,20.035156 C 9.3756451,20.777481 8.9908939,22.315525 9,23.964844 c 0.0091,1.647758 0.3993458,3.216584 0.8183594,4.003906 0.3722676,-0.05773 0.9577216,-0.200707 1.6484376,-0.402344 1.381432,-0.403274 3.205756,-1.039548 5.009765,-1.707031 2.406315,-0.890336 3.449662,-1.331387 4.763672,-1.861328 -1.315003,-0.523862 -2.354533,-0.956335 -4.759765,-1.839844 -1.804734,-0.662929 -3.63116,-1.299294 -5.015625,-1.707031 -0.692233,-0.203869 -1.280091,-0.350973 -1.6582034,-0.414063 -0.00627,-0.0011 -0.00556,-9.59e-4 -0.011719,-0.002 z"/>
 <path style="fill:#89dc3c;fill-opacity:1;" d="m 31.242188,11.152344 c -0.0038,0.0054 -0.0039,0.0044 -0.0078,0.0098 -0.222753,0.311979 -0.533581,0.831205 -0.878906,1.464844 -0.690651,1.267279 -1.532466,3.007052 -2.339844,4.751953 -1.075835,2.325091 -1.50497,3.367562 -2.064453,4.667969 1.304053,-0.554505 2.351104,-0.981026 4.68164,-2.052734 1.74761,-0.803646 3.489975,-1.642322 4.751954,-2.333985 0.630989,-0.345831 1.145167,-0.660398 1.449218,-0.882812 -0.260671,-0.853066 -1.09354,-2.236928 -2.251953,-3.408203 -1.159298,-1.172171 -2.518292,-1.987873 -3.339843,-2.216797 z"/>
 <path style="fill:#dc6e33;fill-opacity:1;" d="m 22.046875,25.951172 c -1.300407,0.559483 -2.342878,0.988618 -4.667969,2.064453 -1.744901,0.807378 -3.484674,1.649193 -4.751953,2.339844 -0.633639,0.345325 -1.152865,0.656153 -1.464844,0.878906 -0.0055,0.0039 -0.0045,0.004 -0.0098,0.0078 0.228924,0.821552 1.044626,2.180545 2.216797,3.339843 1.171275,1.158413 2.555137,1.991282 3.408203,2.251953 0.222414,-0.304051 0.536981,-0.818229 0.882812,-1.449218 0.691663,-1.261979 1.530339,-3.004343 2.333985,-4.751954 1.071708,-2.330536 1.498229,-3.377587 2.052734,-4.68164 z"/>
 <path style="fill:#dd4f3c;fill-opacity:1;" d="m 25.953125,25.951172 c 0.554505,1.304053 0.981026,2.351104 2.052734,4.68164 0.803647,1.747611 1.642322,3.489975 2.333985,4.751954 0.345831,0.630989 0.660398,1.145167 0.882812,1.449218 0.853066,-0.260671 2.236928,-1.09354 3.408203,-2.251953 1.172171,-1.159298 1.987873,-2.518292 2.216797,-3.339843 -0.0054,-0.0038 -0.0044,-0.0039 -0.0098,-0.0078 -0.311979,-0.222753 -0.831205,-0.533581 -1.464844,-0.878906 -1.267279,-0.690651 -3.007052,-1.532466 -4.751953,-2.339844 -2.325091,-1.075835 -3.367562,-1.50497 -4.667969,-2.064453 z"/>
 <path style="fill:#f8e12e;fill-opacity:1;" d="m 16.757812,11.152344 c -0.821553,0.228924 -2.180545,1.044626 -3.339843,2.216797 -1.158413,1.171275 -1.991282,2.555137 -2.251953,3.408203 0.304051,0.222414 0.818229,0.536981 1.449218,0.882812 1.261979,0.691663 3.004344,1.530339 4.751954,2.333985 2.330536,1.071708 3.377587,1.498229 4.68164,2.052734 -0.559483,-1.300407 -0.988618,-2.342878 -2.064453,-4.667969 -0.807378,-1.744901 -1.649193,-3.484674 -2.339844,-4.751953 -0.345325,-0.633639 -0.656153,-1.152865 -0.878906,-1.464844 -0.0039,-0.0055 -0.004,-0.0045 -0.0078,-0.0098 z"/>
</svg>

<?xml version="1.0" encoding="UTF-8" standalone="no"?>
<svg xmlns="http://www.w3.org/2000/svg" height="48" viewBox="0 0 48 48" width="48" version="1.1">
 <path style="opacity:0.2;fill:#000000;fill-opacity:1" d="M 24,5 A 20,20 0 0 0 4,25 20,20 0 0 0 24,45 20,20 0 0 0 44,25 20,20 0 0 0 24,5 Z"/>
 <path d="M 24,4 A 20,20 0 0 0 4,24 20,20 0 0 0 24,44 20,20 0 0 0 44,24 20,20 0 0 0 24,4 Z" style="fill:#ff9426;fill-opacity:1"/>
 <circle r="17" cy="25" cx="24" style="opacity:0.2;fill:#000000;fill-opacity:1"/>
 <circle style="opacity:1;fill:#ffffff;fill-opacity:1" cx="24" cy="24" r="17"/>
 <path style="opacity:0.2;fill:#ffffff" d="M 24,4 A 20,20 0 0 0 4.141,21.852 20,19 0 0 1 24,5 20,19 0 0 1 43.922,22.447 20,20 0 0 0 24,4 Z M 43.922,22.447 A 20,20 0 0 1 44,24 20,19 0 0 0 43.922,22.447 Z M 4.141,21.852 A 20,19 0 0 0 4.0922,22.244 20,20 0 0 1 4.141,21.852 Z M 4.0922,22.244 A 20,20 0 0 0 4.0004,24 20,19 0 0 1 4.0922,22.244 Z"/>
 <path style="fill:#d2e015;fill-opacity:1" d="m 23.964844,9 c -1.649319,-0.00911 -3.187314,0.3756455 -3.929688,0.7949219 10e-4,0.00617 9.53e-4,0.00545 0.002,0.011719 0.06309,0.3781121 0.210194,0.9659701 0.414063,1.6582031 0.407737,1.384465 1.044102,3.210891 1.707031,5.015625 0.883509,2.405232 1.315982,3.444762 1.839844,4.759765 0.529941,-1.31401 0.970992,-2.357357 1.861328,-4.763672 0.667483,-1.80401 1.303757,-3.628333 1.707031,-5.009765 0.201637,-0.690716 0.344614,-1.27617 0.402344,-1.6484373 C 27.181475,9.399346 25.612602,9.0091 23.964844,9 Z"/>
 <path style="fill:#c74a30;fill-opacity:1" d="m 23.998047,26.759766 c -0.523862,1.315003 -0.956335,2.354533 -1.839844,4.759765 -0.662929,1.804734 -1.299294,3.63116 -1.707031,5.015625 -0.203869,0.692233 -0.350973,1.280091 -0.414063,1.658203 -0.0011,0.0063 -9.59e-4,0.0055 -0.002,0.01172 0.742325,0.419277 2.280369,0.804022 3.929688,0.794922 1.647758,-0.0091 3.216631,-0.399346 4.003906,-0.818359 C 27.910973,37.809374 27.767996,37.22392 27.566359,36.533204 27.163085,35.151772 26.526811,33.327448 25.859328,31.523439 24.968992,29.117124 24.527941,28.073777 23.998,26.759767 Z"/>
 <path style="fill:#ff769d;fill-opacity:1" d="m 38.205078,20.035156 c -0.0061,10e-4 -0.0054,9.53e-4 -0.01172,0.002 -0.378112,0.06309 -0.96597,0.210194 -1.658203,0.414063 -1.384465,0.407737 -3.210891,1.044102 -5.015625,1.707031 -2.405232,0.883509 -3.444762,1.315982 -4.759765,1.839844 1.31401,0.529941 2.357357,0.970992 4.763672,1.861328 1.80401,0.667483 3.628333,1.303757 5.009765,1.707031 0.690716,0.201637 1.27617,0.344614 1.648438,0.402344 C 38.600654,27.181475 38.9909,25.612602 39,23.964844 39.0091,22.315525 38.624355,20.777481 38.205078,20.035156 Z"/>
 <path style="fill:#f9a726;fill-opacity:1" d="M 9.7949219,20.035156 C 9.3756451,20.777481 8.9908939,22.315525 9,23.964844 c 0.0091,1.647758 0.3993458,3.216584 0.8183594,4.003906 0.3722676,-0.05773 0.9577216,-0.200707 1.6484376,-0.402344 1.381432,-0.403274 3.205756,-1.039548 5.009765,-1.707031 2.406315,-0.890336 3.449662,-1.331387 4.763672,-1.861328 -1.315003,-0.523862 -2.354533,-0.956335 -4.759765,-1.839844 -1.804734,-0.662929 -3.63116,-1.299294 -5.015625,-1.707031 -0.692233,-0.203869 -1.280091,-0.350973 -1.6582034,-0.414063 -0.00627,-0.0011 -0.00556,-9.59e-4 -0.011719,-0.002 z"/>
 <path style="fill:#89dc3c;fill-opacity:1" d="m 31.242188,11.152344 c -0.0038,0.0054 -0.0039,0.0044 -0.0078,0.0098 -0.222753,0.311979 -0.533581,0.831205 -0.878906,1.464844 -0.690651,1.267279 -1.532466,3.007052 -2.339844,4.751953 -1.075835,2.325091 -1.50497,3.367562 -2.064453,4.667969 1.304053,-0.554505 2.351104,-0.981026 4.68164,-2.052734 1.74761,-0.803646 3.489975,-1.642322 4.751954,-2.333985 0.630989,-0.345831 1.145167,-0.660398 1.449218,-0.882812 -0.260671,-0.853066 -1.09354,-2.236928 -2.251953,-3.408203 -1.159298,-1.172171 -2.518292,-1.987873 -3.339843,-2.216797 z"/>
 <path style="fill:#dc6e33;fill-opacity:1" d="m 22.046875,25.951172 c -1.300407,0.559483 -2.342878,0.988618 -4.667969,2.064453 -1.744901,0.807378 -3.484674,1.649193 -4.751953,2.339844 -0.633639,0.345325 -1.152865,0.656153 -1.464844,0.878906 -0.0055,0.0039 -0.0045,0.004 -0.0098,0.0078 0.228924,0.821552 1.044626,2.180545 2.216797,3.339843 1.171275,1.158413 2.555137,1.991282 3.408203,2.251953 0.222414,-0.304051 0.536981,-0.818229 0.882812,-1.449218 0.691663,-1.261979 1.530339,-3.004343 2.333985,-4.751954 1.071708,-2.330536 1.498229,-3.377587 2.052734,-4.68164 z"/>
 <path style="fill:#dd4f3c;fill-opacity:1" d="m 25.953125,25.951172 c 0.554505,1.304053 0.981026,2.351104 2.052734,4.68164 0.803647,1.747611 1.642322,3.489975 2.333985,4.751954 0.345831,0.630989 0.660398,1.145167 0.882812,1.449218 0.853066,-0.260671 2.236928,-1.09354 3.408203,-2.251953 1.172171,-1.159298 1.987873,-2.518292 2.216797,-3.339843 -0.0054,-0.0038 -0.0044,-0.0039 -0.0098,-0.0078 -0.311979,-0.222753 -0.831205,-0.533581 -1.464844,-0.878906 -1.267279,-0.690651 -3.007052,-1.532466 -4.751953,-2.339844 -2.325091,-1.075835 -3.367562,-1.50497 -4.667969,-2.064453 z"/>
 <path style="fill:#f8e12e;fill-opacity:1" d="m 16.757812,11.152344 c -0.821553,0.228924 -2.180545,1.044626 -3.339843,2.216797 -1.158413,1.171275 -1.991282,2.555137 -2.251953,3.408203 0.304051,0.222414 0.818229,0.536981 1.449218,0.882812 1.261979,0.691663 3.004344,1.530339 4.751954,2.333985 2.330536,1.071708 3.377587,1.498229 4.68164,2.052734 -0.559483,-1.300407 -0.988618,-2.342878 -2.064453,-4.667969 -0.807378,-1.744901 -1.649193,-3.484674 -2.339844,-4.751953 -0.345325,-0.633639 -0.656153,-1.152865 -0.878906,-1.464844 -0.0039,-0.0055 -0.004,-0.0045 -0.0078,-0.0098 z"/>
</svg>
